X: 3
T: The Foxhunter's
R: slip jig
M: 9/8
L: 1/8
K: Dmaj
|:F2 FD GE|F2 FD ED| ~F2 F2 GB|AF DF ED:|
|:B2 BA GA|BE ED GA|B2 BA GB|AD DE FD:|


Tune 482	Setting 13385

